resources/haticons/SVG/master-card.svg

<!-- Generated by IcoMoon.io -->
<svg version="1.1" xmlns="http://www.w3.org/2000/svg" width="24" height="24" viewBox="0 0 24 24">
<title>master-card</title>
<path d="M16.575 19.5c-1.575 0-3-0.45-4.2-1.2 0.3-0.225 2.925-2.25 2.925-5.625 0.15-3.75-2.325-5.7-2.925-6.15 1.2-0.825 2.625-1.275 4.2-1.275 4.125 0 7.425 3.225 7.425 7.125s-3.3 7.125-7.425 7.125zM11.55 18.3c-1.2 0.75-2.625 1.2-4.125 1.2-4.125 0-7.425-3.225-7.425-7.125s3.3-7.125 7.425-7.125c1.575 0 3 0.45 4.2 1.2-0.3 0.225-2.925 2.25-2.925 5.625-0.225 3.825 2.325 5.775 2.85 6.225zM9.15 12.075c0.075-2.175 1.2-4.125 2.85-5.325 0.45 0.3 2.85 2.175 2.85 5.85-0.3 3.525-2.625 5.25-2.85 5.4-0.3-0.225-1.275-0.975-1.95-2.325-0.525-0.975-0.825-2.1-0.825-3.3v-0.075c-0.075-0.075-0.075-0.075-0.075-0.225 0 0.075 0 0.075 0 0z"></path>
</svg>

<svg xmlns="http://www.w3.org/2000/svg" width="24" height="24"><path d="M16.575 19.5c-1.575 0-3-.45-4.2-1.2.3-.225 2.925-2.25 2.925-5.625.15-3.75-2.325-5.7-2.925-6.15 1.2-.825 2.625-1.275 4.2-1.275C20.7 5.25 24 8.475 24 12.375S20.7 19.5 16.575 19.5zm-5.025-1.2c-1.2.75-2.625 1.2-4.125 1.2C3.3 19.5 0 16.275 0 12.375S3.3 5.25 7.425 5.25c1.575 0 3 .45 4.2 1.2-.3.225-2.925 2.25-2.925 5.625-.225 3.825 2.325 5.775 2.85 6.225zm-2.4-6.225C9.225 9.9 10.35 7.95 12 6.75c.45.3 2.85 2.175 2.85 5.85-.3 3.525-2.625 5.25-2.85 5.4a6.617 6.617 0 0 1-1.95-2.325 6.943 6.943 0 0 1-.825-3.3V12.3c-.075-.075-.075-.075-.075-.225 0 .075 0 .075 0 0z"/></svg>
